X: 248
M: C|
L: 1/8
K: D
V: 1
|: F | E>e-e>^d e>EE>F | E>ee>c d>DD>F | E>e-e>d B>cd>e | (f/g/a) e>f d>DD :|
V: 2 clef=bass middle=d
d | a2A2 g2G2 | a2A2 d2D2 | a2A2 g2e>f |g2a2 d2D :|
|: d | e2E2 e2E2 | e2E2 d2D2 | e2E2 g>ab>c' | d'2a2 d2D :|

